src/symbols/alphanum/1F192.svg

<svg id="emoji" viewBox="0 0 72 72" xmlns="http://www.w3.org/2000/svg">
  <g id="grid">
    <path fill="#b3b3b3" d="M68,4V68H4V4H68m4-4H0V72H72V0Z"/>
    <path fill="none" stroke="#00a5ff" stroke-miterlimit="10" stroke-width="0.1" d="M12.923,10.9583H59.0769A1.9231,1.9231,0,0,1,61,12.8814V59.0352a1.9231,1.9231,0,0,1-1.9231,1.9231H12.9231A1.9231,1.9231,0,0,1,11,59.0352V12.8813A1.923,1.923,0,0,1,12.923,10.9583Z"/>
    <rect x="16" y="4" rx="2.2537" width="40" height="64" fill="none" stroke="#00a5ff" stroke-miterlimit="10" stroke-width="0.1"/>
    <rect x="16" y="4" rx="2.2537" width="40" height="64" transform="translate(72) rotate(90)" fill="none" stroke="#00a5ff" stroke-miterlimit="10" stroke-width="0.1"/>
    <circle cx="36" cy="36" r="29" fill="none" stroke="#00a5ff" stroke-miterlimit="10" stroke-width="0.1"/>
  </g>
  <g id="color">
    <path fill="#d0cfce" stroke="none" stroke-miterlimit="10" stroke-width="2" d="M59.0349,60H12.9651 C12.4343,60,12,59.5657,12,59.0349V12.9651C12,12.4343,12.4343,12,12.9651,12h46.0698C59.5657,12,60,12.4343,60,12.9651v46.0698 C60,59.5657,59.5657,60,59.0349,60z"/>
  </g>
  <g id="hair"/>
  <g id="skin"/>
  <g id="skin-shadow"/>
  <g id="line">
    <path fill="none" stroke="#000000" stroke-miterlimit="10" stroke-width="2" d="M59.0349,60H12.9651 C12.4343,60,12,59.5657,12,59.0349V12.9651C12,12.4343,12.4343,12,12.9651,12h46.0698C59.5657,12,60,12.4343,60,12.9651v46.0698 C60,59.5657,59.5657,60,59.0349,60z"/>
    <polyline fill="none" stroke="#000000" stroke-linecap="round" stroke-linejoin="round" stroke-miterlimit="10" stroke-width="2" points="47.9463,32.0267 47.9463,40.0267 51.3748,40.0267"/>
    <path fill="none" stroke="#000000" stroke-linecap="round" stroke-linejoin="round" stroke-miterlimit="10" stroke-width="2" d="M31.9552,40.0267L31.9552,40.0267c-1.5779,0-2.8571-1.2792-2.8571-2.8571v-2.2857c0-1.5779,1.2792-2.8571,2.8571-2.8571l0,0 c1.5779,0,2.8571,1.2792,2.8571,2.8571v2.2857C34.8123,38.7475,33.5331,40.0267,31.9552,40.0267z"/>
    <path fill="none" stroke="#000000" stroke-linecap="round" stroke-linejoin="round" stroke-miterlimit="10" stroke-width="2" d="M41.0847,40.0267L41.0847,40.0267c-1.5779,0-2.8571-1.2792-2.8571-2.8571v-2.2857c0-1.5779,1.2792-2.8571,2.8571-2.8571l0,0 c1.5779,0,2.8571,1.2792,2.8571,2.8571v2.2857C43.9419,38.7475,42.6627,40.0267,41.0847,40.0267z"/>
    <path fill="none" stroke="#000000" stroke-linecap="round" stroke-linejoin="round" stroke-miterlimit="10" stroke-width="2" d="M26.3775,39.3077c-0.5044,0.4473-1.168,0.719-1.8952,0.719l0,0c-1.5779,0-2.8571-1.2792-2.8571-2.8571v-2.2857v2.2857v-2.2857 c0-1.5779,1.2792-2.8571,2.8571-2.8571l0,0c0.7272,0,1.3909,0.2717,1.8952,0.7191"/>
  </g>
</svg>

<svg viewBox="0 0 72 72" xmlns="http://www.w3.org/2000/svg"><path fill="#b3b3b3" d="M68 4v64H4V4h64m4-4H0v72h72V0z"/><path fill="none" stroke="#00a5ff" stroke-miterlimit="10" stroke-width=".1" d="M12.923 10.958h46.154A1.923 1.923 0 0161 12.881v46.154a1.923 1.923 0 01-1.923 1.923H12.923A1.923 1.923 0 0111 59.035V12.881a1.923 1.923 0 011.923-1.923z"/><rect x="16" y="4" rx="2.254" width="40" height="64" fill="none" stroke="#00a5ff" stroke-miterlimit="10" stroke-width=".1"/><rect x="16" y="4" rx="2.254" width="40" height="64" transform="rotate(90 36 36)" fill="none" stroke="#00a5ff" stroke-miterlimit="10" stroke-width=".1"/><circle cx="36" cy="36" r="29" fill="none" stroke="#00a5ff" stroke-miterlimit="10" stroke-width=".1"/><g stroke-linecap="round" stroke-miterlimit="10" stroke-width="6" stroke="#fff" fill="none" stroke-linejoin="round"><path d="M59.035 60h-46.07a.968.968 0 01-.965-.965v-46.07c0-.53.434-.965.965-.965h46.07c.53 0 .965.434.965.965v46.07c0 .53-.434.965-.965.965z"/><path d="M47.946 32.027v8h3.429m-19.42 0h0a2.857 2.857 0 01-2.857-2.857v-2.286a2.857 2.857 0 012.857-2.857h0a2.857 2.857 0 012.857 2.857v2.286a2.857 2.857 0 01-2.857 2.857zm9.13 0h0a2.857 2.857 0 01-2.857-2.857v-2.286a2.857 2.857 0 012.857-2.857h0a2.857 2.857 0 012.857 2.857v2.286a2.857 2.857 0 01-2.857 2.857zm-14.707-.719a2.847 2.847 0 01-1.896.719h0a2.857 2.857 0 01-2.857-2.857v-2.286 2.286-2.286a2.857 2.857 0 012.857-2.857h0c.728 0 1.391.271 1.896.719"/></g><path fill="#d0cfce" d="M59.035 60h-46.07a.968.968 0 01-.965-.965v-46.07c0-.53.434-.965.965-.965h46.07c.53 0 .965.434.965.965v46.07c0 .53-.434.965-.965.965z"/><g fill="none" stroke="#000" stroke-miterlimit="10" stroke-width="2"><path d="M59.035 60h-46.07a.968.968 0 01-.965-.965v-46.07c0-.53.434-.965.965-.965h46.07c.53 0 .965.434.965.965v46.07c0 .53-.434.965-.965.965z"/><path stroke-linecap="round" stroke-linejoin="round" d="M47.946 32.027v8h3.429m-19.42 0h0a2.857 2.857 0 01-2.857-2.857v-2.286a2.857 2.857 0 012.857-2.857h0a2.857 2.857 0 012.857 2.857v2.286a2.857 2.857 0 01-2.857 2.857zm9.13 0h0a2.857 2.857 0 01-2.857-2.857v-2.286a2.857 2.857 0 012.857-2.857h0a2.857 2.857 0 012.857 2.857v2.286a2.857 2.857 0 01-2.857 2.857zm-14.707-.719a2.847 2.847 0 01-1.896.719h0a2.857 2.857 0 01-2.857-2.857v-2.286 2.286-2.286a2.857 2.857 0 012.857-2.857h0c.728 0 1.391.271 1.896.719"/></g></svg>
